X: 10037
T: The GUINESS POLKA
C: Bob McQuillen 17 Apr 91
B: Bob's Note Book 10 #37
%R: polka, reel
Z: 2021 John Chambers <jc:trillian.mit.edu>
M: C
L: 1/8
K: G	# and D
DC \
| B,DGB d2DC | B,DBd B2AB | c2A2 ABcd | ed^cd BGDC |\
| B,DGB d2DC | B,DBd B2AB | cAFA cAFG | A2G2 G2 :|
K: D
|: AG \
| FABA FAdf | a^gab a2ba | g2eg f2df | edcB ABAG |\
| FABA FDFA | dfab a2ba | gfed ceag | f2d2 d2 :|
%%begintext align
%% It's not very far
%% from Newton, MA, where Jim Guiness lives,
%% to Natick High School, which is where I see him
%% every year at the New England Folk Festival. A
%% really enthusiastic musician, Jim plays flute and
%% clarinet and assorted whistes. I sure hope this tune
%% sounds OK on your clarinet, Jim -
%%endtext

%%sep 1 1 500

%%sep 1 1 500

